findly-builder/apps/searchassist/src/assets/icons/carrot-down-white.svg

<svg width="16" height="16" viewBox="0 0 16 16" fill="none" xmlns="http://www.w3.org/2000/svg">
<path fill-rule="evenodd" clip-rule="evenodd" d="M8.36437 10.1495C8.17497 10.3384 7.87481 10.3495 7.67239 10.1828L7.63563 10.1495L3.15093 5.87727C2.94969 5.67658 2.94969 5.3512 3.15093 5.15052C3.34033 4.96163 3.64048 4.95052 3.84291 5.11718L3.87967 5.15052L8 9.05928L12.1203 5.15052C12.3097 4.96163 12.6099 4.95052 12.8123 5.11718L12.8491 5.15052C13.0385 5.3394 13.0496 5.63873 12.8825 5.84061L12.8491 5.87727L8.36437 10.1495Z" fill="white"/>
</svg>

<svg width="16" height="16" fill="none" xmlns="http://www.w3.org/2000/svg"><path fill-rule="evenodd" clip-rule="evenodd" d="M8.364 10.15a.517.517 0 0 1-.692.033l-.036-.034L3.15 5.877a.513.513 0 0 1 0-.726c.19-.19.49-.2.692-.034l.037.034L8 9.059l4.12-3.908c.19-.19.49-.2.692-.034l.037.034c.19.188.2.488.034.69l-.034.036-4.485 4.272Z" fill="#fff"/></svg>
